material/.icons/material/signature.svg

<svg xmlns="http://www.w3.org/2000/svg" viewBox="0 0 24 24"><path d="M22 22H2v-2h20v2M2.26 16.83L5.09 14l-2.83-2.83 1.41-1.41 2.83 2.83 2.83-2.83 1.41 1.41L7.91 14l2.83 2.83-1.41 1.41-2.83-2.83-2.83 2.83-1.41-1.41z"/></svg>

<?xml version="1.0" encoding="UTF-8"?><!DOCTYPE svg PUBLIC "-//W3C//DTD SVG 1.1//EN" "http://www.w3.org/Graphics/SVG/1.1/DTD/svg11.dtd"><svg xmlns="http://www.w3.org/2000/svg" xmlns:xlink="http://www.w3.org/1999/xlink" version="1.1" id="mdi-signature" width="24" height="24" viewBox="0 0 24 24"><path d="M22,22H2V20H22V22M2.26,16.83L5.09,14L2.26,11.17L3.67,9.76L6.5,12.59L9.33,9.76L10.74,11.17L7.91,14L10.74,16.83L9.33,18.24L6.5,15.41L3.67,18.24L2.26,16.83Z" /></svg>
